packages/kaspersky-hexa-ui-icons/src/iconsSVGs/24/Yandex2Color1.svg

<svg width="24" height="24" viewBox="0 0 24 24" fill="none" xmlns="http://www.w3.org/2000/svg">
<path d="M22 12C22 17.5228 17.5228 22 12 22C6.47715 22 2 17.5228 2 12C2 6.47715 6.47715 2 12 2C17.5228 2 22 6.47715 22 12Z" fill="#FC3F1D"/>
<path d="M12.4328 13.0412C13.0418 14.3751 13.2447 14.839 13.2447 16.4411V18.5651H11.07V14.984L6.96695 6.06025H9.23592L12.4328 13.0412ZM15.115 6.06025L12.4546 12.1061H14.6656L17.3333 6.06025H15.115Z" fill="white"/>
</svg>

<svg xmlns="http://www.w3.org/2000/svg" width="24" height="24" fill="none" viewBox="0 0 24 24"><path fill="#fc3f1d" d="M22 12c0 5.5228-4.4772 10-10 10S2 17.5228 2 12 6.4772 2 12 2s10 4.4772 10 10"/><path fill="#fff" d="M12.4328 13.0412c.609 1.3339.8119 1.7978.8119 3.3999v2.124H11.07V14.984L6.967 6.0603h2.269zm2.6822-6.981-2.6604 6.0459h2.211l2.6677-6.0458z"/></svg>
